**kern	**silbe	**kern	**silbe
*ICvox	*	*ICvox	*
=1	=1	=1	=1
*d:	*	*d:	*
*M4/4	*	*M4/4	*
*clefC3	*	*clefC3	*
16d	Shoo!	1r	.
8.r	.	.	.
4r	.	.	.
4r	.	.	.
8.r	.	.	.
16d	Sh-	.	.
=2	=2	=2	=2
16d	-oo!	1r	.
8.r	.	.	.
4r	.	.	.
4r	.	.	.
8.r	.	.	.
16d	Sh-	.	.
=3	=3	=3	=3
16d	-oo!	1r	.
8.r	.	.	.
4r	.	.	.
4r	.	.	.
8.r	.	.	.
16d	Sh-	.	.
=4	=4	=4	=4
16d	-oo!	1r	.
16r	.	.	.
8r	.	.	.
4r	.	.	.
2r	.	.	.
=5	=5	=5	=5
8r	.	1r	.
eq	_	.	.
8f	Here	.	.
16f	come	.	.
8.f	old	.	.
8f	flat	.	.
8d	top,	.	.
8c	he	.	.
8d	come	.	.
=6	=6	=6	=6
8r	.	1r	.
eq	_	.	.
8f	groo-	.	.
16f	-ving	.	.
8.f	up	.	.
8f	slow-	.	.
8d	-ly,	.	.
8c	he	.	.
8d	got	.	.
=7	=7	=7	=7
8r	.	1r	.
eq	_	.	.
4f	joo	.	.
8f	joo	.	.
8f	eye-	.	.
8d	-ball,	.	.
8c	he	.	.
8d	one	.	.
=8	=8	=8	=8
8r	.	1r	.
4f	ho-	.	.
8d	-ly	.	.
8f	rol-	.	.
8d	-ler,	.	.
8c	he	.	.
8d	got	.	.
=9	=9	=9	=9
8r	.	1r	.
dq	_	.	.
8e	hair	.	.
4r	.	.	.
d#q	_	.	.
4e	down	.	.
4r	.	.	.
=10	=10	=10	=10
4.e	to	1r	.
8d	his	.	.
8e	knee	.	.
2r	,	.	.
=11	=11	=11	=11
.	.	1r	.
=11	=11	=11	=11
8f	got	.	.
8f	to	.	.
8f	be	.	.
8f	a	.	.
8f	jo-	.	.
8f	-ker,	.	.
8f	he	.	.
=12	=12	=12	=12
8f	just	1r	.
=12	=12	=12	=12
8f	do	.	.
8f	what	.	.
8f	he	.	.
8f	please	.	.
4r	!	.	.
8.r	.	.	.
=13	=13	=13	=13
.	.	1r	.
16d	Sh-	.	.
=13	=13	=13	=13
16d	-oo!	.	.
8.r	.	.	.
4r	.	.	.
4r	.	.	.
8.r	.	.	.
=14	=14	=14	=14
.	.	1r	.
16d	Sh-	.	.
=14	=14	=14	=14
16d	-oo!	.	.
8.r	.	.	.
4r	.	.	.
4r	.	.	.
8.r	.	.	.
=15	=15	=15	=15
.	.	1r	.
16d	Sh-	.	.
=15	=15	=15	=15
16d	-oo!	.	.
8.r	.	.	.
4r	.	.	.
4r	.	.	.
8.r	.	.	.
=16	=16	=16	=16
.	.	1r	.
16d	Sh-	.	.
=16	=16	=16	=16
16d	-oo!	.	.
16r	.	.	.
8r	.	.	.
4r	.	.	.
2r	.	.	.
=17	=17	=17	=17
.	.	1r	.
=17	=17	=17	=17
8r	.	.	.
eq	_	.	.
8f	He	.	.
8f	wear	.	.
8f	no	.	.
8f	shoe	.	.
8d	shine,	.	.
8c	he	.	.
=18	=18	=18	=18
8d	got	8r	.
=18	=18	=18	=18
8r	.	Bq	_
.	.	4c	toe
eq	_	.	.
4f	toe	.	.
.	.	8B	jam
8f	jam	8c	foot-
8f	foot-	8A	-ball,
8d	-ball,	4r	.
8c	he	.	.
=19	=19	=19	=19
8d	got	8r	.
=19	=19	=19	=19
8r	.	Bq	_
.	.	4c	mon-
eq	_	.	.
4f	mon-	.	.
.	.	8B	-key
8d	-key	8c	fin-
8e	fin-	8A	-ger,
8d	-ger,	4r	.
8c	he	.	.
=20	=20	=20	=20
8d	shoot	8r	.
=20	=20	=20	=20
8r	.	Bq	_
.	.	4c	Co-
4f	Co-	.	.
.	.	8B	-ca
8d	-ca	8c	Co-
8f	Co-	8A	-la,
8d	-la,	4r	.
8c	he	.	.
=21	=21	=21	=21
8d	say	8r	.
=21	=21	=21	=21
8r	.	8c	\"I
8e	\"I	cq	_
.	.	8c#	know
8e	know	16B	_
.	.	[16c	you
16d#	_	8c]	_
[16e	you	.	.
8e]	_	8r	,
8r	,	4r	.
4r	.	.	.
=22	=22	=22	=22
.	.	8e	you
=22	=22	=22	=22
8e	you	8e	know
8e	know	8d#	_
8d#	_	8e	me
8e	me	2r	,
2r	,	.	.
=23	=23	=23	=23
.	.	1r	.
=23	=23	=23	=23
8f	one	.	.
8f	thing	.	.
8f	I	.	.
8f	can	.	.
8f	tell	.	.
8f	you	.	.
8f	is	.	.
=24	=24	=24	=24
8f	you	2r	.
=24	=24	=24	=24
8f	got	.	.
8f	to	.	.
8f	be	.	.
[8f	free	4r	.
8f]	_	.	.
8r	!\"	8A	Come
8d	Come	16A	to-
.	.	[16d	_
=25	=25	=25	=25
16d	to-	16d]	_
gq	-ge	Aq	-ther
[16a	_	8.B	_
=25	=25	=25	=25
16a]	_	.	.
eq	ther	.	.
8.f#	_	.	.
.	.	4r	,
4r	,	.	.
.	.	2r	.
4r	.	.	.
eq	_	.	.
4f#	right	.	.
=26	=26	=26	=26
.	.	1r	.
=26	=26	=26	=26
16e	now	.	.
16d	_	.	.
8B	_	.	.
4r	,	.	.
4r	.	.	.
Aq	_	.	.
8B	o-	.	.
=27	=27	=27	=27
16d	-ver	1r	.
16d	me!	.	.
=27	=27	=27	=27
2r	.	.	.
4r	.	.	.
8.r	.	.	.
=28	=28	=28	=28
.	.	1r	.
16d	Sh-	.	.
=28	=28	=28	=28
16d	-oo!	.	.
8.r	.	.	.
4r	.	.	.
4r	.	.	.
8.r	.	.	.
=29	=29	=29	=29
.	.	1r	.
16d	Sh-	.	.
=29	=29	=29	=29
16d	-oo!	.	.
8.r	.	.	.
4r	.	.	.
4r	.	.	.
8.r	.	.	.
=30	=30	=30	=30
.	.	1r	.
16d	Sh-	.	.
=30	=30	=30	=30
16d	-oo!	.	.
16r	.	.	.
8r	.	.	.
4r	.	.	.
2r	.	.	.
=31	=31	=31	=31
.	.	1r	.
=31	=31	=31	=31
8r	.	.	.
eq	_	.	.
8f	He	.	.
8f	bag	.	.
16d	pro-	.	.
16f	-duc	.	.
16r	.	.	.
8d	tion	.	.
16r	,	.	.
8c	he	.	.
=32	=32	=32	=32
8d	got	8r	.
=32	=32	=32	=32
8r	.	Bq	_
.	.	4c	wal-
eq	_	.	.
4f	wal-	.	.
.	.	8B	-rus
8d	-rus	8c	gum-
8f	gum-	8A	-boot,
8d	-boot,	4r	.
8c	he	.	.
=33	=33	=33	=33
8d	got	8r	.
=33	=33	=33	=33
8r	.	Bq	_
.	.	4c	O-
eq	_	.	.
4f	O-	.	.
.	.	8B	-no
8d	-no	8B	side-
8e	side-	8A	-board,
8d	-board,	4r	.
8c	he	.	.
=34	=34	=34	=34
8d	one	8r	.
=34	=34	=34	=34
8r	.	Bq	_
.	.	4c	spi-
4f	spi-	.	.
.	.	8B	-nal
8d	-nal	8c	crac-
8f	crac-	8A	-ker,
8d	-ker,	4r	.
8c	he	.	.
=35	=35	=35	=35
8d	got	8r	.
=35	=35	=35	=35
8r	.	Bq	_
.	.	8c	feet
dq	_	4r	.
8e	feet	.	.
4r	.	.	.
.	.	Bq	_
.	.	4c	down
d#q	_	.	.
4e	down	.	.
.	.	8c	be-
8d	be-	8c	-low
=36	=36	=36	=36
[8e	-low	8c#	_
=36	=36	=36	=36
4e]	_	8c	_
.	.	8B-	his
8d	his	8c	knee
8e	knee	2r	,
2r	,	.	.
=37	=37	=37	=37
.	.	1r	.
=37	=37	=37	=37
8f	hold	.	.
8f	you	.	.
8f	in	.	.
8f	his	.	.
8f	arm-	.	.
8f	-chair,	.	.
8f	you	.	.
=38	=38	=38	=38
8f	can	2r	feel
=38	=38	=38	=38
8f	feel	.	.
8f	his	.	.
8f	dis-	.	.
[8f	-ease	4r	.
8f]	_	.	.
8r	!	8A	Come
8d	Come	16A	to-
.	.	[16d	-ge
=39	=39	=39	=39
16d	to-	16d]	_
gq	_	Aq	_
[16a	-ge	8.B	ther
=39	=39	=39	=39
16a]	_	.	.
eq	_	.	.
8.f#	ther	.	.
.	.	4r	.
4r	.	.	.
.	.	2r	.
4r	.	.	.
eq	_	.	.
4f#	right	.	.
=40	=40	=40	=40
.	.	1r	.
=40	=40	=40	=40
16e	now	.	.
16d	_	.	.
8B	_	.	.
4r	,	.	.
4r	.	.	.
8B	o-	.	.
=41	=41	=41	=41
16d	-ver	1r	.
16d	me!	.	.
=41	=41	=41	=41
2r	.	.	.
4r	.	.	.
8.r	.	.	.
=42	=42	=42	=42
.	.	1r	.
16d	Sh-	.	.
=42	=42	=42	=42
16d	-oo!	.	.
16r	.	.	.
8r	.	.	.
4r	.	.	.
8.r	.	.	.
[16b-	Right	.	.
4b-]	!	.	.
=43	=43	=43	=43
.	.	1r	.
=43	=43	=43	=43
1r	.	.	.
=44	=44	=44	=44
.	.	1r	.
=44	=44	=44	=44
1r	.	.	.
=45	=45	=45	=45
.	.	1r	.
=45	=45	=45	=45
1r	.	.	.
=46	=46	=46	=46
.	.	1r	.
=46	=46	=46	=46
2r	.	.	.
8.r	.	.	.
[16g	Come	.	.
16g]	_	.	.
8d	on	.	.
=47	=47	=47	=47
.	.	1r	.
16r	!	.	.
=47	=47	=47	=47
1r	.	.	.
=48	=48	=48	=48
.	.	1r	.
=48	=48	=48	=48
1r	.	.	.
=49	=49	=49	=49
.	.	1r	.
=49	=49	=49	=49
1r	.	.	.
=50	=50	=50	=50
.	.	1r	.
=50	=50	=50	=50
1r	.	.	.
=51	=51	=51	=51
.	.	1r	.
=51	=51	=51	=51
1r	.	.	.
=52	=52	=52	=52
.	.	1r	.
=52	=52	=52	=52
1r	.	.	.
=53	=53	=53	=53
.	.	1r	.
=53	=53	=53	=53
8r	.	.	.
eq	_	.	.
8f	He	.	.
8f	rol-	.	.
16d	-ler	.	.
16f	coas	.	.
16r	.	.	.
8d	ter	.	.
16r	,	.	.
8c	he	.	.
=54	=54	=54	=54
8d	got	8r	.
=54	=54	=54	=54
8r	.	Bq	_
.	.	8c	ear-
eq	_	4B	_
4f	ear-	.	.
8d	-ly	8c	-war-
8f	war-	8A	-ning,
8d	-ning,	4r	.
8c	he	.	.
=55	=55	=55	=55
8d	got	8r	.
=55	=55	=55	=55
8r	.	Bq	_
.	.	4c	mud-
eq	_	.	.
4f	mud-	.	.
.	.	8B	-dy
8d	-dy	8c	wa-
8f	wa-	8A	-ter,
8d	-ter,	4r	.
8c	he	.	.
=56	=56	=56	=56
8d	one	8r	.
=56	=56	=56	=56
8r	.	Bq	_
.	.	4c	mo-
eq	_	.	.
4f	mo-	.	.
.	.	8B	-jo
8d	-jo	8c	fil-
8f	fil-	8A	-ter,
8d	-ter,	4r	.
8c	he	.	.
=57	=57	=57	=57
8d	say	8r	.
=57	=57	=57	=57
8r	.	B#q	_
.	.	4c#	\"one
dq	_	.	.
4e	\"one	.	.
.	.	8B#	and
8d	and	4c#	one
4e	one	.	.
.	.	8B#	and
8d	and	[8c#	one
=58	=58	=58	=58
[8e	one	4c#]	_
=58	=58	=58	=58
4e]	_	.	.
.	.	8B#	is
8d	is	8c#	three,\"
8e	three,\"	2r	.
2r	.	.	.
=59	=59	=59	=59
.	.	8f	got
=59	=59	=59	=59
8f	got	8f	to
8f	to	8f	be
8f	be	16f	good
.	.	16f	l-
8f	good	8f	-loo-
8f	loo-	8f	-king
8f	-king	8f	cuz
8f	cuz	8f	he
=60	=60	=60	=60
8f	he	8f	so
=60	=60	=60	=60
8f	so	8f	hard
8f	hard	8d	to
8d	to	[8f	see
[8f	see	8f]	_
8f]	_	8r	!
8r	!	8A	Come
8d	Come	16A	to
.	.	[16d	ge
=61	=61	=61	=61
16d	to	16d]	_
gq	_	Aq	_
[16a	ge	8.B	ther
=61	=61	=61	=61
16a]	_	.	.
eq	_	.	.
8.f#	ther	.	.
.	.	4r	.
4r	,	.	.
.	.	2r	.
4r	.	.	.
eq	_	.	.
4f#	right	.	.
=62	=62	=62	=62
.	.	1r	.
=62	=62	=62	=62
16e	now	.	.
16d	_	.	.
8B	_	.	.
4r	,	.	.
4r	.	.	.
8B	o-	.	.
=63	=63	=63	=63
16d	-ver	1r	.
16d	me!	.	.
=63	=63	=63	=63
2r	.	.	.
4r	.	.	.
8.r	.	.	.
=64	=64	=64	=64
.	.	1r	.
16d	Sh-	.	.
=64	=64	=64	=64
16d	-oo!	.	.
8.r	.	.	.
4r	.	.	.
4r	.	.	.
8.r	.	.	.
=65	=65	=65	=65
.	.	1r	.
16d	Sh-	.	.
=65	=65	=65	=65
16d	-oo!	.	.
8.r	.	.	.
4r	.	.	.
4r	.	.	.
8.r	.	.	.
=66	=66	=66	=66
.	.	1r	.
16d	Sh-	.	.
=66	=66	=66	=66
16d	-oo!	.	.
16r	.	.	.
8r	.	.	.
4r	.	.	.
4r	.	.	.
16r	.	.	.
8.a-	Ungh!	.	.
=67	=67	=67	=67
.	.	1r	.
=67	=67	=67	=67
1r	.	.	.
=68	=68	=68	=68
.	.	1r	.
=68	=68	=68	=68
1r	.	.	.
=69	=69	=69	=69
.	.	1r	.
=69	=69	=69	=69
4r	.	.	.
8e	Come	.	.
16f	to-	.	.
[16e	-ge	.	.
16e]	_	.	.
8d	ther	.	.
16r	!	.	.
4r	.	.	.
=70	=70	=70	=70
.	.	1r	.
=70	=70	=70	=70
4r	.	.	.
8f	Yeah!	.	.
2r	.	.	.
=71	=71	=71	=71
4r	.	1r	.
8e	Come	.	.
16f	to-	.	.
[16e	-ge	.	.
16e]	_	.	.
8d	ther	.	.
16r	!	.	.
4r	.	.	.
=72	=72	=72	=72
4c	Yeah!	1r	.
4r	.	.	.
2r	.	.	.
=73	=73	=73	=73
4r	.	1r	.
8e	Come	.	.
16f	to-	.	.
[16e	-ge	.	.
16e]	_	.	.
8d	ther	.	.
16r	!	.	.
4r	.	.	.
=74	=74	=74	=74
4d	Yeah!	1r	.
4r	.	.	.
2r	.	.	.
=75	=75	=75	=75
4r	.	1r	.
8e	Come	.	.
16f	to-	.	.
[16e	-ge	.	.
16e]	_	.	.
8d	ther	.	.
16r	.	.	.
4r	!	.	.
=76	=76	=76	=76
4d	Yeah!	1r	.
4r	.	.	.
2r	.	.	.
=77	=77	=77	=77
4r	.	1r	.
8e	Come	.	.
16f	to-	.	.
[16e	-ge	.	.
16e]	_	.	.
8d	ther	.	.
16r	.	.	.
8.r	.	.	.
16d	Y-	.	.
=78	=78	=78	=78
4a	-yeah!	1r	.
4r	.	.	.
2r	.	.	.
=79	=79	=79	=79
4r	.	1r	.
8e	Come	.	.
16f	to-	.	.
[16e	-ge	.	.
16e]	_	.	.
8d	ther	.	.
16r	!	.	.
8.r	.	.	.
ccq	_	.	.
[16dd	Yeah	.	.
=80	=80	=80	=80
2.dd_	_	1r	.
8dd]	_	.	.
8r	!	.	.
=81	=81	=81	=81
4r	.	1r	.
8e	Come	.	.
16f	to-	.	.
[16e	-ge	.	.
16e]	_	.	.
8d	ther	.	.
16r	.	.	.
8.r	.	.	.
ccq	_	.	.
[16dd	Yeah	.	.
=82	=82	=82	=82
2.dd]	_	1r	.
4r	!	.	.
=83	=83	=83	=83
4r	.	1r	.
8e	Come	.	.
16f	to-	.	.
[16e	-ge	.	.
16e]	_	.	.
8d	ther	.	.
16r	.	.	.
8.r	!	.	.
[16e	_	.	.
=84	=84	=84	=84
8.e]	_	1r	.
16r	.	.	.
4r	.	.	.
2r	.	.	.
=85	=85	=85	=85
4r	.	1r	.
8e	Come	.	.
16f	to-	.	.
[16e	-ge	.	.
16e]	_	.	.
8d	ther	.	.
16r	.	.	.
8.r	!	.	.
ccq	_	.	.
[16dd	Yeah	.	.
=86	=86	=86	=86
2.dd_	_	1r	.
8dd]	_	.	.
8r	!	.	.
*-	*-	*-	*-
!!!ENC: Nathaniel Condit-Schultz